X: 2322
T: Sanders Brane.   a Strathspey.
C: by Mr. Duncan
%R: strathspey
B: Niel Gow & Sons "Complete Repository" v.2 p.32 #2
Z: 2021 John Chambers <jc:trillian.mit.edu>
M: C|
L: 1/8
K: D
% - - - - - - - - - -
V: 1 staves=2
A |\
~FADA ~FADE/F/ | GCEG CGEG | FADA FADg | f>d f/e/d/^c/ dDD :| f/g/ | adfa daf>a | gceg cgef/g/ |
adfa dafa | gc (a/g/f/e/) fddf/g/ || adfa daf>a | gceg cgef/g/ | a>fg>e f>de>c | A>c (A/G/F/E/) FDD |]
% - - - - - - - - - -
% Voice 2 preserves the staff layout in the book.
V: 2 clef=bass middle=d
z |\
d2d2 d2d2 | c2c2 c2c2 | d2d2 d2d2 | G2A2 d2[dD] :| z | d'2d'2 d'2d'2  | c'2c'2 c'2c'2 |
d'2d'2 d'2d'2 | g2a2 d2d2 || d'2d'2 d'2d'2 | c'2c'2 c2c2 | d2e2 f2g2 | a2A2 d2d |]


